X: 20320
T: John Brosnan's
R: polka
M: 2/4
K: Dmajor
|:D>D DB|AF2B|AF D>E|FE E2|
D>D DB|AF2B|AF EF|D3A:|
|:d2cd|BA FA|d2cd|B3c|
d2cd|BA FB|AF EF|D3A:|
|:d2e2|f3f|ed Bc|d3 A|
Bd/B/ AF|Bd/B/ AF|AF EF|D3A:|

